packages/icons/raw/imported/GenericLike.svg

<svg width="32" height="32" viewBox="0 0 32 32" fill="none" xmlns="http://www.w3.org/2000/svg">
<path d="M12.3371 25.5H7.85495C7.10261 25.5 6.49425 24.886 6.50004 24.1326L6.56198 15.9897C6.56769 15.2442 7.17266 14.6429 7.91698 14.6429H12.3371M12.3371 25.5H21.6626C22.2976 25.5 22.8475 25.0583 22.9853 24.4374L25.4672 14.7286C25.6552 13.8811 25.0113 13.0769 24.1444 13.0769H20.363C19.5092 13.0769 18.8386 12.5044 19.0041 11.6655L19.7034 8.12022C19.8689 7.28128 19.2279 6.5 18.3742 6.5H18.1078C17.6259 6.5 17.1803 6.75645 16.9374 7.17327L12.3371 14.6429M12.3371 25.5V14.6429" stroke="black"/>
</svg>

<svg width="32" height="32" fill="none" xmlns="http://www.w3.org/2000/svg"><path d="M12.337 25.5H7.855c-.752 0-1.36-.614-1.355-1.367l.062-8.143a1.356 1.356 0 0 1 1.355-1.347h4.42m0 10.857h9.326c.635 0 1.184-.442 1.322-1.063l2.482-9.708a1.357 1.357 0 0 0-1.323-1.652h-3.781c-.854 0-1.524-.573-1.359-1.412l.7-3.545a1.357 1.357 0 0 0-1.33-1.62h-.266c-.482 0-.928.256-1.17.673l-4.6 7.47m0 10.857V14.643" stroke="#000"/></svg>
